img/svg/sykmeldinger.svg

<?xml version="1.0" encoding="UTF-8"?>
<svg width="32px" height="32px" viewBox="0 0 32 32" version="1.1" xmlns="http://www.w3.org/2000/svg" xmlns:xlink="http://www.w3.org/1999/xlink">
    <!-- Generator: Sketch 41.2 (35397) - http://www.bohemiancoding.com/sketch -->
    <title>Sykmeldinger</title>
    <desc>Created with Sketch.</desc>
    <defs></defs>
    <g id="Page-1" stroke="none" stroke-width="1" fill="none" fill-rule="evenodd">
        <g id="Sykmeldinger">
            <g id="Group">
                <path d="M13.1866667,2.81466667 C10.324,-0.048 5.68,-0.048 2.816,2.81466667 C-0.0493333333,5.68133333 -0.0466666667,10.3253333 2.816,13.1866667 L18.816,29.1866667 C21.6786667,32.0493333 26.3226667,32.048 29.1866667,29.1853333 C32.0493333,26.324 32.0493333,21.6773333 29.1866667,18.816 L13.1866667,2.81466667 L13.1866667,2.81466667 Z M7.51466667,17.888 L17.884,7.516 L24.4853333,14.116 L14.116,24.488 L7.51466667,17.888 Z" id="Shape" stroke="#3E3832"></path>
                <path d="M5.63066667,10.6213333 C5.46,10.6213333 5.28933333,10.6866667 5.15866667,10.816 C4.89866667,11.076 4.89866667,11.4986667 5.15866667,11.7586667 C5.28933333,11.8893333 5.46,11.9533333 5.63066667,11.9533333 C5.80133333,11.9533333 5.972,11.888 6.10266667,11.7586667 C6.364,11.4986667 6.364,11.076 6.10266667,10.816 C5.972,10.6866667 5.80133333,10.6213333 5.63066667,10.6213333 Z M8.45866667,7.792 C8.288,7.792 8.11733333,7.85733333 7.98666667,7.988 C7.72666667,8.24533333 7.72666667,8.67066667 7.98666667,8.93066667 C8.11733333,9.06133333 8.288,9.12533333 8.45866667,9.12533333 C8.62933333,9.12533333 8.8,9.06133333 8.92933333,8.93066667 C9.18933333,8.67066667 9.18933333,8.24533333 8.92933333,7.988 C8.8,7.85733333 8.62933333,7.792 8.45866667,7.792 Z M5.15866667,7.32 C4.988,7.32 4.81733333,7.384 4.68666667,7.51466667 C4.42666667,7.77466667 4.42666667,8.19733333 4.68666667,8.46 C4.81733333,8.59066667 4.988,8.65466667 5.15866667,8.65466667 C5.32933333,8.65466667 5.5,8.58933333 5.63066667,8.46 C5.892,8.19733333 5.892,7.77466667 5.63066667,7.51466667 C5.5,7.384 5.32933333,7.32 5.15866667,7.32 L5.15866667,7.32 Z M7.98666667,4.49333333 C7.816,4.49333333 7.64533333,4.55866667 7.51466667,4.688 C7.25466667,4.948 7.25466667,5.37066667 7.51466667,5.62933333 C7.64533333,5.76133333 7.816,5.82666667 7.98666667,5.82666667 C8.15733333,5.82666667 8.328,5.76133333 8.45866667,5.62933333 C8.71866667,5.37066667 8.71866667,4.948 8.45866667,4.688 C8.328,4.55866667 8.15733333,4.49333333 7.98666667,4.49333333 L7.98666667,4.49333333 Z M8.92933333,11.0893333 C8.75866667,11.0893333 8.588,11.1573333 8.45733333,11.2866667 C8.19733333,11.5466667 8.19733333,11.9693333 8.45733333,12.2293333 C8.588,12.36 8.75866667,12.424 8.92933333,12.424 C9.1,12.424 9.27066667,12.3586667 9.40133333,12.2293333 C9.66133333,11.9693333 9.66133333,11.5466667 9.40133333,11.2866667 C9.27066667,11.1573333 9.1,11.0893333 8.92933333,11.0893333 Z M11.7573333,8.264 C11.5866667,8.264 11.416,8.32933333 11.2853333,8.45866667 C11.0266667,8.72 11.0266667,9.14 11.2866667,9.4 C11.4173333,9.53333333 11.588,9.59733333 11.7586667,9.59733333 C11.9293333,9.59733333 12.0986667,9.532 12.2293333,9.4 C12.4906667,9.14133333 12.4906667,8.72 12.2293333,8.46 C12.0986667,8.32933333 11.928,8.264 11.7573333,8.264 Z M11.2866667,4.96266667 C11.116,4.96266667 10.9453333,5.028 10.8146667,5.15733333 C10.5546667,5.42 10.5546667,5.84266667 10.8146667,6.10266667 C10.9453333,6.23333333 11.116,6.29733333 11.2866667,6.29733333 C11.4573333,6.29733333 11.628,6.232 11.7586667,6.10266667 C12.0186667,5.84266667 12.0186667,5.42 11.7586667,5.15733333 C11.628,5.028 11.4573333,4.96266667 11.2866667,4.96266667 Z M20.7146667,25.7066667 C20.544,25.7066667 20.3733333,25.7706667 20.2426667,25.9013333 C19.9826667,26.16 19.9826667,26.5826667 20.2426667,26.8453333 C20.3733333,26.976 20.544,27.0386667 20.7146667,27.0386667 C20.8853333,27.0386667 21.056,26.976 21.1866667,26.8453333 C21.4466667,26.5826667 21.4466667,26.16 21.1866667,25.9013333 C21.056,25.7706667 20.8853333,25.7066667 20.7146667,25.7066667 Z M23.5426667,22.876 C23.372,22.876 23.2013333,22.9426667 23.0706667,23.0706667 C22.8093333,23.3306667 22.8093333,23.7533333 23.0706667,24.0146667 C23.2013333,24.1453333 23.372,24.2093333 23.5426667,24.2093333 C23.7133333,24.2093333 23.884,24.144 24.0146667,24.0146667 C24.2746667,23.7533333 24.2746667,23.3306667 24.0146667,23.0706667 C23.884,22.9426667 23.7133333,22.876 23.5426667,22.876 Z M24.0146667,26.176 C23.844,26.176 23.6733333,26.2413333 23.5426667,26.3706667 C23.2826667,26.6333333 23.2826667,27.056 23.5426667,27.3133333 C23.6733333,27.444 23.844,27.508 24.0146667,27.508 C24.1853333,27.508 24.356,27.4426667 24.4866667,27.3133333 C24.748,27.056 24.748,26.6333333 24.4866667,26.3706667 C24.356,26.2413333 24.1853333,26.176 24.0146667,26.176 Z M26.844,23.3493333 C26.6733333,23.3493333 26.5026667,23.4146667 26.372,23.544 C26.112,23.8026667 26.112,24.2253333 26.372,24.488 C26.5026667,24.6173333 26.6733333,24.6826667 26.844,24.6826667 C27.0146667,24.6826667 27.1853333,24.6173333 27.316,24.488 C27.576,24.2253333 27.576,23.8026667 27.316,23.544 C27.1853333,23.4146667 27.0146667,23.3493333 26.844,23.3493333 Z M20.244,22.4053333 C20.0733333,22.4053333 19.9026667,22.4706667 19.772,22.6 C19.512,22.86 19.512,23.284 19.772,23.544 C19.9026667,23.6733333 20.0733333,23.7386667 20.244,23.7386667 C20.4146667,23.7386667 20.5853333,23.6733333 20.716,23.544 C20.976,23.284 20.976,22.86 20.716,22.6 C20.584,22.4706667 20.4146667,22.4053333 20.244,22.4053333 Z M23.072,19.5773333 C22.9013333,19.5773333 22.7306667,19.6426667 22.6,19.772 C22.34,20.0333333 22.34,20.4546667 22.6,20.7146667 C22.7306667,20.8453333 22.9013333,20.9093333 23.072,20.9093333 C23.2426667,20.9093333 23.4133333,20.844 23.544,20.7146667 C23.8053333,20.4546667 23.8053333,20.0333333 23.544,19.772 C23.4133333,19.6413333 23.2426667,19.5773333 23.072,19.5773333 Z M26.372,20.048 C26.2013333,20.048 26.0306667,20.1133333 25.9,20.2426667 C25.64,20.5026667 25.64,20.9253333 25.9,21.1853333 C26.0306667,21.316 26.2013333,21.38 26.372,21.38 C26.5426667,21.38 26.712,21.3146667 26.8426667,21.1853333 C27.104,20.9253333 27.104,20.5026667 26.8426667,20.2426667 C26.712,20.1133333 26.5426667,20.048 26.372,20.048 L26.372,20.048 Z" id="Shape" fill="#3E3832"></path>
            </g>
        </g>
    </g>
</svg>

<svg width="32" height="32" xmlns="http://www.w3.org/2000/svg"><g fill="none" fill-rule="evenodd"><path d="M13.187 2.815a7.334 7.334 0 0 0-10.37 10.372l15.999 16a7.334 7.334 0 0 0 10.37-10.37l-16-16.002h0zM7.515 17.888L17.884 7.516l6.601 6.6-10.369 10.372-6.601-6.6z" stroke="#3E3832"/><path d="M5.63 10.621a.667.667 0 1 0 0 1.332.667.667 0 0 0 0-1.332zM8.46 7.792a.667.667 0 1 0 0 1.335.667.667 0 0 0 0-1.335zm-3.3-.472a.664.664 0 0 0-.472.195.67.67 0 0 0 0 .945.67.67 0 0 0 .944 0 .668.668 0 0 0-.472-1.14zm2.828-2.827a.666.666 0 1 0 0 1.333.666.666 0 1 0 0-1.333zm.942 6.596a.667.667 0 1 0 0 1.337.667.667 0 0 0 0-1.337zm2.828-2.825a.667.667 0 1 0 .002 1.33.667.667 0 0 0-.002-1.33zm-.47-3.301a.67.67 0 0 0-.472.194.67.67 0 0 0 0 .946.67.67 0 0 0 .944 0 .67.67 0 0 0 0-.946.67.67 0 0 0-.472-.194zm9.428 20.744a.669.669 0 0 0-.472 1.139c.13.13.301.193.472.193.17 0 .341-.063.472-.194a.669.669 0 0 0-.472-1.138zm2.828-2.831a.666.666 0 1 0 .472 1.139.669.669 0 0 0-.472-1.139zm.472 3.3a.667.667 0 1 0 0 1.332.667.667 0 0 0 0-1.332zm2.829-2.827a.669.669 0 0 0 0 1.333.669.669 0 0 0 0-1.333zm-6.6-.944a.669.669 0 0 0 0 1.333.669.669 0 0 0 0-1.333zm2.828-2.828a.667.667 0 1 0 0 1.332.667.667 0 0 0 0-1.332zm3.3.471a.667.667 0 1 0 0 1.332.667.667 0 0 0 0-1.332z" fill="#3E3832"/></g></svg>
